Simply blue circles/scalable/apps/gnome-mahjongg.svg

<svg xmlns="http://www.w3.org/2000/svg" width="48" height="48" viewBox="0 0 12.7 12.7"><path fill="#2c89a0" d="M6.344.073a6.29 6.29 0 0 0-6.29 6.29 6.29 6.29 0 0 0 6.29 6.288 6.29 6.29 0 0 0 6.29-6.289 6.29 6.29 0 0 0-6.29-6.29zm-.018.936a5.407 5.407 0 0 1 5.407 5.407 5.407 5.407 0 0 1-5.407 5.407A5.407 5.407 0 0 1 .92 6.416 5.407 5.407 0 0 1 6.326 1.01zm-.841.542a.474.474 0 0 0-.248.896l.209.106c.265.134.43.403.43.7v.637h-1.86a.474.474 0 0 0-.464.572L4.04 6.75c.047.22.24.376.464.376h1.373v3.55a.474.474 0 1 0 .948 0v-3.55h1.373a.474.474 0 0 0 .464-.376l.487-2.287a.475.475 0 0 0-.464-.572h-1.86v-.636c0-.657-.364-1.25-.95-1.547l-.207-.105a.476.476 0 0 0-.182-.05zm-.883 3.287h1.274v1.338h-.99l-.284-1.338zm2.222 0h1.274l-.285 1.338h-.99V4.838z"/></svg>

<svg xmlns="http://www.w3.org/2000/svg" width="48" height="48" viewBox="0 0 12.7 12.7"><path fill="#2c89a0" d="M6.34.07a6.29 6.29 0 0 0-6.29 6.3 6.29 6.29 0 0 0 6.3 6.28 6.29 6.29 0 0 0 6.28-6.29A6.29 6.29 0 0 0 6.34.07zm-.01.94a5.4 5.4 0 0 1 5.4 5.4 5.4 5.4 0 0 1-5.4 5.41 5.4 5.4 0 0 1-5.41-5.4A5.4 5.4 0 0 1 6.32 1zm-.84.54a.47.47 0 0 0-.25.9l.2.1c.27.14.44.4.44.7v.64H4.02a.47.47 0 0 0-.47.57l.49 2.29c.05.22.24.38.46.38h1.38v3.55a.47.47 0 1 0 .95 0V7.13H8.2a.47.47 0 0 0 .46-.38l.49-2.29a.47.47 0 0 0-.46-.57H6.83v-.64c0-.65-.37-1.25-.95-1.54l-.21-.1a.48.48 0 0 0-.18-.06zM4.6 4.84h1.28v1.34h-1L4.6 4.84zm2.22 0H8.1L7.8 6.18h-.99V4.84z"/></svg>
